X:56
T: MUEDE KEHRT DER WANDERER ZURUECK
N: E0672A
O: Europa, Mitteleuropa, Deutschland, Rheinland
R: Liebes - Lied
M: 4/4
L: 1/16
K: G
D2D2 | B6A2G2F2G2B2 | D8z4
D2F2 | A6G2F2A2d2c2 | B8z4
G2A2 | B6d2c2B2A2G2 | E8z4
G2E2 | D6G2F2A2c3B | G8z4

@@@ Tune index: 4369
